storage/app/icons/phosphoricons/duotone/git-merge-duotone.svg

<svg xmlns="http://www.w3.org/2000/svg" fill="currentColor" viewBox="0 0 256 256"><path d="M104 56a24 24 0 1 1-24-24 24 24 0 0 1 24 24" opacity=".2"/><path d="M208 112a32.05 32.05 0 0 0-30.69 23l-42.21-6a8 8 0 0 1-4.95-2.71L94.43 84.55A32 32 0 1 0 72 87v82a32 32 0 1 0 16 0v-67.37l30 35a24 24 0 0 0 14.83 8.14l44 6.28A32 32 0 1 0 208 112M64 56a16 16 0 1 1 16 16 16 16 0 0 1-16-16m32 144a16 16 0 1 1-16-16 16 16 0 0 1 16 16m112-40a16 16 0 1 1 16-16 16 16 0 0 1-16 16"/></svg>

<svg xmlns="http://www.w3.org/2000/svg" viewBox="0 0 256 256" fill="currentColor"><path d="M104,56A24,24,0,1,1,80,32,24,24,0,0,1,104,56Z" opacity="0.2"/><path d="M208,112a32.05,32.05,0,0,0-30.69,23l-42.21-6a8,8,0,0,1-4.95-2.71L94.43,84.55A32,32,0,1,0,72,87v82a32,32,0,1,0,16,0V101.63l30,35a24,24,0,0,0,14.83,8.14l44,6.28A32,32,0,1,0,208,112ZM64,56A16,16,0,1,1,80,72,16,16,0,0,1,64,56ZM96,200a16,16,0,1,1-16-16A16,16,0,0,1,96,200Zm112-40a16,16,0,1,1,16-16A16,16,0,0,1,208,160Z"/></svg>
